X: 48
T:The Irish Lady
T:Anniseed-water Robin
M:6/8
L:1/8
Q:100
R:Jig
K:DDor
def efg|c2c c2d|e> fe/2d/2 cde/2d/2|1 cAA A3:|2 cAA A2G||
FFF F>ED|fff f>ed|e2f g> fe/2f/2|d2A d3||

